; generated by PrusaSlicer 2.1.0-beta2+linux64 on 2019-11-20 at 12:05:36

; 

; external perimeters extrusion width = 0.45mm
; perimeters extrusion width = 0.45mm
; infill extrusion width = 0.45mm
; solid infill extrusion width = 0.45mm
; top infill extrusion width = 0.40mm
; first layer extrusion width = 0.42mm

M73 P0 R42
M73 Q0 S42
M201 X1000 Y1000 Z1000 E5000 ; sets maximum accelerations, mm/sec^2
M203 X200 Y200 Z12 E120 ; sets maximum feedrates, mm/sec
M204 P1250 R1250 T1250 ; sets acceleration (P, T) and retract acceleration (R), mm/sec^2
M205 X8.00 Y8.00 Z0.40 E1.50 ; sets the jerk limits, mm/sec
M205 S0 T0 ; sets the minimum extruding and travel feed rate, mm/sec
M107
M862.3 P "MK3S" ; printer model check
M862.1 P0.4 ; nozzle diameter check
M115 U3.7.2 ; tell printer latest fw version
G90 ; use absolute coordinates
M83 ; extruder relative mode
M104 S215 ; set extruder temp
M140 S60 ; set bed temp
M190 S60 ; wait for bed temp
M109 S215 ; wait for extruder temp
G28 W ; home all without mesh bed level
G80 ; mesh bed leveling
G1 Y-3.0 F1000.0 ; go outside print area
G92 E0.0
G1 X60.0 E9.0 F1000.0 ; intro line
M73 Q0 S42
M73 P0 R42
G1 X100.0 E12.5 F1000.0 ; intro line
G92 E0.0
M221 S95
G21 ; set units to millimeters
G90 ; use absolute coordinates
M83 ; use relative distances for extrusion
M900 K30 ; Filament gcode
;BEFORE_LAYER_CHANGE
G92 E0.0
;0.2


G1 E-0.80000 F2100.00000
G1 Z0.600 F10800.000
;AFTER_LAYER_CHANGE
;0.2
G1 X109.876 Y92.587
G1 Z0.200
G1 E0.80000 F2100.00000
M204 S1000
G1 F1200
G1 X111.171 Y91.159 E0.06044
G1 X112.588 Y89.875 E0.05996
G1 X114.131 Y88.731 E0.06021
G1 X115.777 Y87.744 E0.06020
G1 X117.513 Y86.923 E0.06020
G1 X119.321 Y86.277 E0.06020
G1 X121.184 Y85.810 E0.06020
G1 X123.083 Y85.529 E0.06020
G1 X125.005 Y85.434 E0.06033
G1 X126.919 Y85.529 E0.06008
G1 X128.818 Y85.811 E0.06020
G1 X130.680 Y86.277 E0.06020
G1 X132.492 Y86.925 E0.06033
G1 X134.224 Y87.745 E0.06008
G1 X135.874 Y88.734 E0.06033
G1 X137.416 Y89.878 E0.06020
G1 X138.882 Y91.214 E0.06219
G1 X140.122 Y92.585 E0.05795
G1 X141.270 Y94.133 E0.06041
G1 X142.253 Y95.773 E0.05995
G1 X143.104 Y97.582 E0.06269
G1 X143.726 Y99.329 E0.05814
G1 X144.203 Y101.258 E0.06231
G1 X144.478 Y103.166 E0.06044
G1 X144.517 Y106.000 E0.08887
G1 X144.466 Y106.966 E0.03033
G1 X144.179 Y108.866 E0.06026
G1 X143.721 Y110.688 E0.05889
G1 X143.050 Y112.550 E0.06206
G1 X142.257 Y114.220 E0.05796
G1 X141.264 Y115.876 E0.06055
G1 X140.122 Y117.416 E0.06012
G1 X138.783 Y118.885 E0.06230
G1 X137.409 Y120.127 E0.05810
G1 X135.866 Y121.271 E0.06021
G1 X134.223 Y122.256 E0.06008
G1 X132.483 Y123.078 E0.06033
G1 X130.679 Y123.723 E0.06008
G1 X128.816 Y124.190 E0.06020
G1 X126.917 Y124.471 E0.06020
G1 X124.999 Y124.566 E0.06020
G1 X123.081 Y124.471 E0.06021
G1 X121.182 Y124.189 E0.06020
G1 X119.320 Y123.723 E0.06020
G1 X117.512 Y123.076 E0.06020
G1 X115.776 Y122.255 E0.06021
G1 X114.129 Y121.268 E0.06020
G1 X112.587 Y120.124 E0.06020
G1 X111.164 Y118.834 E0.06021
G1 X109.881 Y117.418 E0.05994
G1 X108.732 Y115.871 E0.06043
G1 X107.744 Y114.223 E0.06024
G1 X106.927 Y112.494 E0.05994
G1 X106.277 Y110.679 E0.06047
G1 X105.810 Y108.816 E0.06020
G1 X105.529 Y106.917 E0.06020
G1 X105.434 Y104.999 E0.06020
G1 X105.528 Y103.090 E0.05994
G1 X105.809 Y101.192 E0.06016
G1 X106.277 Y99.321 E0.06046
G1 X106.924 Y97.512 E0.06024
G1 X107.745 Y95.776 E0.06020
G1 X108.728 Y94.136 E0.05994
G1 X109.840 Y92.635 E0.05858
G1 X110.143 Y92.860 F10800.000
G1 F1200
G1 X111.438 Y91.426 E0.06057
G1 X112.826 Y90.168 E0.05873
G1 X114.338 Y89.046 E0.05905
G1 X115.953 Y88.078 E0.05904
G1 X117.659 Y87.271 E0.05916
G1 X119.429 Y86.638 E0.05893
G1 X121.255 Y86.180 E0.05904
G1 X123.118 Y85.904 E0.05904
G1 X125.002 Y85.811 E0.05916
G1 X126.879 Y85.904 E0.05893
G1 X128.746 Y86.181 E0.05916
G1 X130.569 Y86.637 E0.05892
G1 X132.345 Y87.273 E0.05916
G1 X134.047 Y88.078 E0.05904
G1 X135.662 Y89.047 E0.05904
G1 X137.175 Y90.168 E0.05904
G1 X138.608 Y91.473 E0.06076
G1 X139.829 Y92.822 E0.05706
G1 X140.954 Y94.340 E0.05924
G1 X141.921 Y95.952 E0.05893
G1 X142.751 Y97.716 E0.06113
G1 X143.364 Y99.436 E0.05725
G1 X143.831 Y101.320 E0.06087
G1 X144.102 Y103.191 E0.05927
G1 X144.139 Y106.000 E0.08809
G1 X144.091 Y106.923 E0.02899
G1 X143.810 Y108.786 E0.05908
G1 X143.361 Y110.576 E0.05785
G1 X142.705 Y112.396 E0.06064
G1 X141.925 Y114.040 E0.05707
G1 X140.950 Y115.668 E0.05950
G1 X139.829 Y117.178 E0.05896
G1 X138.523 Y118.612 E0.06084
G1 X137.171 Y119.834 E0.05713
G1 X135.659 Y120.956 E0.05905
G1 X134.043 Y121.924 E0.05904
G1 X132.341 Y122.729 E0.05904
G1 X130.571 Y123.362 E0.05893
G1 X128.741 Y123.820 E0.05916
G1 X126.879 Y124.096 E0.05904
G1 X124.998 Y124.189 E0.05904
G1 X123.121 Y124.096 E0.05893
G1 X121.258 Y123.820 E0.05904
G1 X119.431 Y123.363 E0.05904
G1 X117.658 Y122.729 E0.05904
G1 X115.956 Y121.923 E0.05904
G1 X114.341 Y120.955 E0.05904
G1 X112.828 Y119.834 E0.05904
G1 X111.433 Y118.569 E0.05905
G1 X110.174 Y117.180 E0.05878
G1 X109.047 Y115.663 E0.05927
G1 X108.078 Y114.047 E0.05907
G1 X107.276 Y112.352 E0.05878
G1 X106.638 Y110.571 E0.05930
G1 X106.180 Y108.745 E0.05904
G1 X105.904 Y106.882 E0.05904
G1 X105.811 Y104.998 E0.05916
G1 X105.903 Y103.129 E0.05867
G1 X106.179 Y101.264 E0.05912
G1 X106.638 Y99.429 E0.05930
G1 X107.271 Y97.658 E0.05896
G1 X108.077 Y95.956 E0.05904
G1 X109.042 Y94.345 E0.05890
G1 X110.107 Y92.908 E0.05608
G1 F8640
G1 X111.438 Y91.426 E-0.45986
G1 X112.401 Y90.553 E-0.30014
G1 E-0.04000 F2100.00000
G1 Z0.800 F10800.000
G1 X141.333 Y103.391
G1 Z0.200
G1 E0.80000 F2100.00000
G1 F1200
G1 X141.334 Y103.413 E0.00068
G1 X138.787 Y103.413 E0.07985
G1 X138.621 Y102.291 E0.03557
G1 X138.290 Y100.969 E0.04273
G1 X137.831 Y99.685 E0.04273
G1 X137.248 Y98.453 E0.04273
G1 X136.547 Y97.284 E0.04273
G1 X135.735 Y96.189 E0.04274
G1 X134.812 Y95.172 E0.04309
G1 X133.810 Y94.265 E0.04237
G1 X132.716 Y93.453 E0.04273
G1 X131.547 Y92.752 E0.04273
G1 X130.315 Y92.169 E0.04273
G1 X129.031 Y91.710 E0.04273
G1 X127.709 Y91.379 E0.04274
G1 X126.350 Y91.178 E0.04309
G1 X125.000 Y91.112 E0.04237
G1 X123.639 Y91.179 E0.04273
G1 X122.291 Y91.379 E0.04273
G1 X120.969 Y91.710 E0.04273
G1 X119.685 Y92.169 E0.04273
G1 X118.453 Y92.752 E0.04273
G1 X117.284 Y93.453 E0.04273
G1 X116.190 Y94.265 E0.04273
G1 X115.180 Y95.180 E0.04273
G1 X114.265 Y96.190 E0.04273
G1 X113.453 Y97.284 E0.04273
G1 X112.752 Y98.453 E0.04273
G1 X112.169 Y99.685 E0.04273
G1 X111.714 Y100.958 E0.04237
G1 X111.379 Y102.290 E0.04309
G1 X111.179 Y103.639 E0.04274
G1 X111.112 Y105.000 E0.04273
G1 X111.178 Y106.350 E0.04237
G1 X111.379 Y107.709 E0.04309
G1 X111.710 Y109.031 E0.04274
G1 X112.169 Y110.315 E0.04273
G1 X112.752 Y111.547 E0.04273
G1 X113.453 Y112.716 E0.04273
G1 X114.265 Y113.810 E0.04273
G1 X115.180 Y114.820 E0.04273
G1 X116.190 Y115.735 E0.04273
G1 X117.284 Y116.547 E0.04273
G1 X118.453 Y117.248 E0.04273
G1 X119.685 Y117.831 E0.04273
G1 X120.969 Y118.290 E0.04273
G1 X122.291 Y118.621 E0.04273
G1 X123.639 Y118.821 E0.04273
G1 X125.000 Y118.888 E0.04273
G1 X126.361 Y118.821 E0.04273
G1 X127.709 Y118.621 E0.04273
G1 X129.031 Y118.290 E0.04273
G1 X130.315 Y117.831 E0.04273
G1 X131.547 Y117.248 E0.04273
G1 X132.716 Y116.547 E0.04273
G1 X133.810 Y115.735 E0.04273
G1 X134.820 Y114.820 E0.04273
G1 X135.735 Y113.810 E0.04273
G1 X136.547 Y112.716 E0.04273
G1 X137.248 Y111.547 E0.04273
G1 X137.831 Y110.315 E0.04273
G1 X138.290 Y109.031 E0.04273
G1 X138.621 Y107.709 E0.04273
G1 X138.787 Y106.587 E0.03557
G1 X141.334 Y106.587 E0.07985
G1 X141.097 Y108.202 E0.05117
G1 X140.706 Y109.764 E0.05050
G1 X140.163 Y111.281 E0.05050
G1 X139.474 Y112.737 E0.05050
G1 X138.646 Y114.118 E0.05050
G1 X137.687 Y115.412 E0.05050
G1 X136.605 Y116.605 E0.05050
G1 X135.412 Y117.687 E0.05050
G1 X134.118 Y118.646 E0.05050
G1 X132.737 Y119.474 E0.05050
G1 X131.281 Y120.163 E0.05050
G1 X129.764 Y120.706 E0.05050
G1 X128.202 Y121.097 E0.05050
G1 X126.609 Y121.333 E0.05050
G1 X125.000 Y121.412 E0.05050
G1 X123.391 Y121.333 E0.05050
G1 X121.798 Y121.097 E0.05050
G1 X120.236 Y120.706 E0.05050
G1 X118.719 Y120.163 E0.05050
G1 X117.263 Y119.474 E0.05050
G1 X115.882 Y118.646 E0.05050
G1 X114.588 Y117.687 E0.05050
G1 X113.395 Y116.605 E0.05050
G1 X112.313 Y115.412 E0.05050
G1 X111.354 Y114.118 E0.05050
G1 X110.526 Y112.737 E0.05050
G1 X109.837 Y111.281 E0.05050
G1 X109.294 Y109.764 E0.05050
G1 X108.903 Y108.202 E0.05050
G1 X108.667 Y106.609 E0.05050
G1 X108.588 Y105.000 E0.05050
G1 X108.667 Y103.391 E0.05050
G1 X108.903 Y101.798 E0.05050
G1 X109.294 Y100.236 E0.05050
G1 X109.837 Y98.719 E0.05050
G1 X110.526 Y97.263 E0.05050
G1 X111.354 Y95.882 E0.05050
G1 X112.313 Y94.588 E0.05050
G1 X113.395 Y93.395 E0.05050
G1 X114.588 Y92.313 E0.05050
G1 X115.882 Y91.354 E0.05050
G1 X117.263 Y90.526 E0.05050
G1 X118.719 Y89.837 E0.05050
G1 X120.236 Y89.294 E0.05050
G1 X121.798 Y88.903 E0.05050
G1 X123.391 Y88.667 E0.05050
G1 X125.008 Y88.588 E0.05076
G1 X126.609 Y88.667 E0.05024
G1 X128.202 Y88.903 E0.05050
G1 X129.764 Y89.294 E0.05050
G1 X131.281 Y89.837 E0.05050
G1 X132.737 Y90.526 E0.05050
G1 X134.118 Y91.354 E0.05050
G1 X135.412 Y92.313 E0.05050
G1 X136.605 Y93.395 E0.05050
G1 X137.687 Y94.588 E0.05050
G1 X138.646 Y95.882 E0.05050
G1 X139.474 Y97.263 E0.05050
G1 X140.163 Y98.719 E0.05050
G1 X140.706 Y100.236 E0.05050
G1 X141.097 Y101.798 E0.05050
G1 X141.324 Y103.332 E0.04862
G1 X141.730 Y103.790 F10800.000
G1 F1200
G1 X138.451 Y103.790 E0.10283
G1 X138.251 Y102.364 E0.04514
G1 X137.928 Y101.078 E0.04157
G1 X137.482 Y99.830 E0.04157
G1 X136.915 Y98.631 E0.04157
G1 X136.233 Y97.494 E0.04157
G1 X135.443 Y96.429 E0.04157
G1 X134.545 Y95.439 E0.04192
G1 X133.571 Y94.556 E0.04121
G1 X132.506 Y93.767 E0.04157
G1 X131.369 Y93.085 E0.04157
G1 X130.170 Y92.518 E0.04157
G1 X128.922 Y92.072 E0.04157
G1 X127.636 Y91.749 E0.04157
G1 X126.313 Y91.554 E0.04193
G1 X125.000 Y91.490 E0.04121
G1 X123.676 Y91.555 E0.04157
G1 X122.364 Y91.749 E0.04157
G1 X121.078 Y92.072 E0.04157
G1 X119.830 Y92.518 E0.04157
G1 X118.631 Y93.085 E0.04157
G1 X117.494 Y93.767 E0.04157
G1 X116.429 Y94.556 E0.04157
G1 X115.447 Y95.447 E0.04157
G1 X114.556 Y96.429 E0.04157
G1 X113.767 Y97.494 E0.04157
G1 X113.085 Y98.631 E0.04157
G1 X112.518 Y99.830 E0.04157
G1 X112.075 Y101.067 E0.04121
G1 X111.749 Y102.364 E0.04192
G1 X111.555 Y103.676 E0.04157
G1 X111.490 Y105.000 E0.04157
G1 X111.554 Y106.313 E0.04121
G1 X111.749 Y107.636 E0.04193
G1 X112.072 Y108.922 E0.04157
G1 X112.518 Y110.170 E0.04157
G1 X113.085 Y111.369 E0.04157
G1 X113.767 Y112.506 E0.04157
G1 X114.556 Y113.571 E0.04157
G1 X115.447 Y114.553 E0.04157
G1 X116.429 Y115.444 E0.04157
G1 X117.494 Y116.233 E0.04157
G1 X118.631 Y116.915 E0.04157
G1 X119.830 Y117.482 E0.04157
G1 X121.078 Y117.928 E0.04157
G1 X122.364 Y118.251 E0.04157
G1 X123.676 Y118.445 E0.04157
G1 X125.000 Y118.510 E0.04157
G1 X126.324 Y118.445 E0.04157
G1 X127.636 Y118.251 E0.04157
G1 X128.922 Y117.928 E0.04157
G1 X130.170 Y117.482 E0.04157
G1 X131.369 Y116.915 E0.04157
G1 X132.506 Y116.233 E0.04157
G1 X133.571 Y115.444 E0.04157
G1 X134.553 Y114.553 E0.04157
G1 X135.444 Y113.571 E0.04157
G1 X136.233 Y112.506 E0.04157
G1 X136.915 Y111.369 E0.04157
G1 X137.482 Y110.170 E0.04157
G1 X137.928 Y108.922 E0.04157
G1 X138.251 Y107.636 E0.04157
G1 X138.451 Y106.210 E0.04514
G1 X141.730 Y106.210 E0.10283
G1 X141.709 Y106.646 E0.01368
G1 X141.467 Y108.276 E0.05166
G1 X141.067 Y109.874 E0.05166
G1 X140.512 Y111.425 E0.05166
G1 X139.807 Y112.915 E0.05166
G1 X138.960 Y114.328 E0.05166
G1 X137.979 Y115.651 E0.05166
G1 X136.872 Y116.872 E0.05166
G1 X135.651 Y117.979 E0.05166
G1 X134.328 Y118.960 E0.05166
G1 X132.915 Y119.807 E0.05166
G1 X131.425 Y120.512 E0.05166
G1 X129.874 Y121.067 E0.05166
G1 X128.276 Y121.467 E0.05166
G1 X126.646 Y121.709 E0.05166
G1 X125.000 Y121.790 E0.05166
G1 X123.354 Y121.709 E0.05166
G1 X121.724 Y121.467 E0.05166
G1 X120.126 Y121.067 E0.05166
G1 X118.575 Y120.512 E0.05166
G1 X117.085 Y119.807 E0.05166
G1 X115.672 Y118.960 E0.05166
G1 X114.349 Y117.979 E0.05166
G1 X113.128 Y116.872 E0.05166
G1 X112.021 Y115.651 E0.05166
G1 X111.040 Y114.328 E0.05166
G1 X110.193 Y112.915 E0.05166
G1 X109.488 Y111.425 E0.05166
G1 X108.933 Y109.874 E0.05166
G1 X108.533 Y108.276 E0.05166
G1 X108.291 Y106.646 E0.05166
G1 X108.210 Y105.000 E0.05166
G1 X108.291 Y103.354 E0.05166
G1 X108.533 Y101.724 E0.05166
G1 X108.933 Y100.126 E0.05166
G1 X109.488 Y98.575 E0.05166
G1 X110.193 Y97.085 E0.05166
G1 X111.040 Y95.672 E0.05166
G1 X112.021 Y94.349 E0.05166
G1 X113.128 Y93.128 E0.05166
G1 X114.349 Y92.021 E0.05166
G1 X115.672 Y91.040 E0.05166
G1 X117.085 Y90.193 E0.05166
G1 X118.575 Y89.488 E0.05166
G1 X120.126 Y88.933 E0.05166
G1 X121.724 Y88.533 E0.05166
G1 X123.354 Y88.291 E0.05166
G1 X125.008 Y88.211 E0.05192
G1 X126.646 Y88.291 E0.05140
G1 X128.276 Y88.533 E0.05166
G1 X129.874 Y88.933 E0.05166
G1 X131.425 Y89.488 E0.05166
G1 X132.915 Y90.193 E0.05166
G1 X134.328 Y91.040 E0.05166
G1 X135.651 Y92.021 E0.05166
G1 X136.872 Y93.128 E0.05166
G1 X137.979 Y94.349 E0.05166
G1 X138.960 Y95.672 E0.05166
G1 X139.807 Y97.085 E0.05166
G1 X140.512 Y98.575 E0.05166
G1 X141.067 Y100.126 E0.05166
G1 X141.467 Y101.724 E0.05166
G1 X141.709 Y103.354 E0.05166
G1 X141.727 Y103.730 E0.01180
G1 X141.376 Y103.605 F10800.000
G1 F8640
G1 X138.451 Y103.790 E-0.75668
G1 X138.449 Y103.776 E-0.00332
G1 E-0.04000 F2100.00000
G1 Z0.800 F10800.000
G1 X141.005 Y101.954
G1 Z0.200
G1 E0.80000 F2100.00000
G1 F1200
G1 X137.611 Y98.559 E0.15148
G1 X138.092 Y99.577 E0.03554
G1 X140.897 Y102.382 E0.12515
G1 X140.989 Y103.011 E0.02007
G1 X138.391 Y100.413 E0.11593
G1 X138.561 Y100.886 E0.01587
G1 X138.638 Y101.197 E0.01009
G1 X140.572 Y103.130 E0.08628
G1 X140.035 Y103.130 E0.01693
G1 X138.818 Y101.913 E0.05433
G1 X138.899 Y102.235 E0.01050
G1 X138.950 Y102.582 E0.01104
G1 X139.668 Y103.300 E0.03205
G1 F8640
G1 X138.950 Y102.582 E-0.23456
G1 X138.899 Y102.235 E-0.08080
G1 X138.818 Y101.913 E-0.07682
G1 X139.944 Y103.039 E-0.36782
G1 E-0.04000 F2100.00000
G1 Z0.800 F10800.000
G1 X141.099 Y107.414
G1 Z0.200
G1 E0.80000 F2100.00000
G1 F1200
G1 X140.555 Y106.870 E0.02429
G1 X140.018 Y106.870 E0.01693
G1 X140.881 Y107.732 E0.03848
G1 X140.807 Y108.195 E0.01479
G1 X139.482 Y106.870 E0.05914
G1 X139.031 Y106.870 E0.01421
G1 X139.020 Y106.945 E0.00240
G1 X140.699 Y108.624 E0.07494
G1 X140.592 Y109.054 E0.01396
G1 X138.951 Y107.412 E0.07323
G1 X138.872 Y107.870 E0.01466
G1 X140.484 Y109.483 E0.07195
G1 X140.359 Y109.894 E0.01356
G1 X138.765 Y108.300 E0.07114
G1 X138.657 Y108.729 E0.01396
G1 X140.217 Y110.289 E0.06963
G1 X140.076 Y110.684 E0.01325
G1 X138.546 Y109.154 E0.06827
G1 X138.405 Y109.550 E0.01325
G1 X139.935 Y111.080 E0.06827
G1 X139.770 Y111.451 E0.01283
G1 X138.263 Y109.945 E0.06721
G1 X138.122 Y110.340 E0.01325
G1 X139.597 Y111.815 E0.06584
G1 X139.425 Y112.180 E0.01272
G1 X137.956 Y110.711 E0.06555
G1 X137.784 Y111.075 E0.01272
G1 X139.253 Y112.544 E0.06555
G1 X139.056 Y112.884 E0.01240
G1 X137.611 Y111.440 E0.06447
G1 X137.429 Y111.794 E0.01258
G1 X138.855 Y113.220 E0.06362
G1 X138.654 Y113.555 E0.01234
G1 X137.228 Y112.130 E0.06362
G1 X137.027 Y112.465 E0.01234
G1 X138.453 Y113.891 E0.06362
G1 X138.411 Y113.961 E0.00257
G1 X138.230 Y114.205 E0.00959
G1 X136.826 Y112.801 E0.06265
G1 X136.603 Y113.115 E0.01215
G1 X138.001 Y114.513 E0.06239
G1 X137.773 Y114.821 E0.01211
G1 X136.375 Y113.423 E0.06239
G1 X136.146 Y113.731 E0.01211
G1 X137.544 Y115.129 E0.06239
G1 X137.468 Y115.232 E0.00404
G1 X137.298 Y115.420 E0.00799
G1 X135.913 Y114.035 E0.06179
G1 X135.658 Y114.317 E0.01199
G1 X137.043 Y115.701 E0.06179
G1 X136.788 Y115.983 E0.01199
G1 X135.403 Y114.598 E0.06179
G1 X135.148 Y114.880 E0.01199
G1 X136.533 Y116.264 E0.06179
G1 X136.264 Y116.533 E0.01197
G1 X134.880 Y115.148 E0.06179
G1 X134.598 Y115.403 E0.01199
G1 X135.983 Y116.788 E0.06179
G1 X135.701 Y117.043 E0.01199
G1 X134.317 Y115.658 E0.06179
G1 X134.035 Y115.913 E0.01199
G1 X135.420 Y117.298 E0.06179
G1 X135.129 Y117.544 E0.01201
G1 X133.731 Y116.146 E0.06239
G1 X133.423 Y116.375 E0.01211
G1 X134.821 Y117.773 E0.06239
G1 X134.513 Y118.001 E0.01211
