; generated by PrusaSlicer 2.1.0-beta2+linux64 on 2019-11-20 at 12:05:54

; 

; external perimeters extrusion width = 0.45mm
; perimeters extrusion width = 0.45mm
; infill extrusion width = 0.45mm
; solid infill extrusion width = 0.45mm
; top infill extrusion width = 0.40mm
; first layer extrusion width = 0.42mm

M73 P0 R53
M73 Q0 S53
M201 X1000 Y1000 Z1000 E5000 ; sets maximum accelerations, mm/sec^2
M203 X200 Y200 Z12 E120 ; sets maximum feedrates, mm/sec
M204 P1250 R1250 T1250 ; sets acceleration (P, T) and retract acceleration (R), mm/sec^2
M205 X8.00 Y8.00 Z0.40 E1.50 ; sets the jerk limits, mm/sec
M205 S0 T0 ; sets the minimum extruding and travel feed rate, mm/sec
M107
M862.3 P "MK3S" ; printer model check
M862.1 P0.4 ; nozzle diameter check
M115 U3.7.2 ; tell printer latest fw version
G90 ; use absolute coordinates
M83 ; extruder relative mode
M104 S215 ; set extruder temp
M140 S60 ; set bed temp
M190 S60 ; wait for bed temp
M109 S215 ; wait for extruder temp
G28 W ; home all without mesh bed level
G80 ; mesh bed leveling
G1 Y-3.0 F1000.0 ; go outside print area
G92 E0.0
G1 X60.0 E9.0 F1000.0 ; intro line
M73 Q0 S53
M73 P0 R52
G1 X100.0 E12.5 F1000.0 ; intro line
G92 E0.0
M221 S95
G21 ; set units to millimeters
G90 ; use absolute coordinates
M83 ; use relative distances for extrusion
M900 K30 ; Filament gcode
;BEFORE_LAYER_CHANGE
G92 E0.0
;0.2


G1 E-0.80000 F2100.00000
G1 Z0.600 F10800.000
;AFTER_LAYER_CHANGE
;0.2
G1 X103.982 Y87.753
G1 Z0.200
G1 E0.80000 F2100.00000
M204 S1000
G1 F1200
G1 X105.774 Y85.776 E0.08366
G1 X107.751 Y83.984 E0.08366
G1 X109.894 Y82.394 E0.08365
G1 X112.182 Y81.023 E0.08366
G1 X114.594 Y79.882 E0.08366
G1 X117.106 Y78.983 E0.08366
G1 X119.698 Y78.333 E0.08377
G1 X122.337 Y77.942 E0.08366
G1 X125.002 Y77.811 E0.08366
G1 X127.667 Y77.943 E0.08366
G1 X130.306 Y78.334 E0.08366
G1 X132.895 Y78.983 E0.08366
G1 X135.407 Y79.882 E0.08366
G1 X137.815 Y81.021 E0.08355
G1 X140.107 Y82.395 E0.08377
G1 X142.250 Y83.984 E0.08365
G1 X144.255 Y85.805 E0.08492
G1 X146.018 Y87.754 E0.08240
G1 X147.608 Y89.897 E0.08365
G1 X148.979 Y92.185 E0.08366
G1 X150.136 Y94.638 E0.08503
G1 X151.018 Y97.110 E0.08229
G1 X151.675 Y99.741 E0.08503
G1 X152.062 Y102.388 E0.08388
G1 X152.139 Y106.000 E0.11327
G1 X152.055 Y107.693 E0.05314
G1 X151.659 Y110.339 E0.08388
G1 X151.017 Y112.895 E0.08263
G1 X150.104 Y115.440 E0.08480
G1 X148.977 Y117.819 E0.08251
G1 X147.605 Y120.107 E0.08366
G1 X146.016 Y122.250 E0.08365
G1 X144.198 Y124.252 E0.08481
G1 X142.246 Y126.018 E0.08251
G1 X140.103 Y127.608 E0.08365
G1 X137.818 Y128.977 E0.08355
G1 X135.403 Y130.120 E0.08377
G1 X132.894 Y131.017 E0.08355
G1 X130.302 Y131.667 E0.08377
G1 X127.666 Y132.057 E0.08354
G1 X124.998 Y132.189 E0.08377
G1 X122.336 Y132.058 E0.08354
G1 X119.697 Y131.666 E0.08366
G1 X117.109 Y131.018 E0.08366
G1 X114.597 Y130.120 E0.08366
G1 X112.185 Y128.979 E0.08366
G1 X109.896 Y127.607 E0.08366
G1 X107.753 Y126.018 E0.08365
G1 X105.776 Y124.226 E0.08366
G1 X103.984 Y122.249 E0.08366
G1 X102.394 Y120.106 E0.08366
G1 X101.023 Y117.818 E0.08366
G1 X99.882 Y115.406 E0.08365
G1 X98.983 Y112.894 E0.08366
G1 X98.334 Y110.306 E0.08366
G1 X97.943 Y107.666 E0.08366
G1 X97.811 Y104.998 E0.08377
G1 X97.942 Y102.336 E0.08354
G1 X98.334 Y99.697 E0.08366
G1 X98.982 Y97.109 E0.08366
G1 X99.881 Y94.597 E0.08366
G1 X101.021 Y92.185 E0.08366
G1 X102.393 Y89.896 E0.08366
G1 X103.946 Y87.801 E0.08177
G1 F8640
G1 X105.774 Y85.776 E-0.62988
G1 X106.191 Y85.397 E-0.13012
G1 E-0.04000 F2100.00000
G1 Z0.800 F10800.000
G1 X149.334 Y103.413
G1 Z0.200
G1 E0.80000 F2100.00000
G1 F1200
G1 X146.985 Y103.413 E0.07366
G1 X146.957 Y102.837 E0.01806
G1 X146.639 Y100.696 E0.06789
G1 X146.113 Y98.596 E0.06789
G1 X145.383 Y96.557 E0.06789
G1 X144.458 Y94.600 E0.06788
G1 X143.345 Y92.743 E0.06789
G1 X142.055 Y91.004 E0.06789
G1 X140.601 Y89.399 E0.06789
G1 X138.996 Y87.945 E0.06789
G1 X137.257 Y86.655 E0.06789
G1 X135.400 Y85.542 E0.06789
G1 X133.443 Y84.617 E0.06788
G1 X131.404 Y83.887 E0.06789
G1 X129.304 Y83.361 E0.06789
G1 X127.162 Y83.043 E0.06789
G1 X124.981 Y82.938 E0.06846
G1 X122.837 Y83.043 E0.06730
G1 X120.696 Y83.361 E0.06789
G1 X118.596 Y83.887 E0.06789
G1 X116.557 Y84.617 E0.06789
G1 X114.599 Y85.542 E0.06789
G1 X112.728 Y86.667 E0.06846
G1 X111.004 Y87.945 E0.06730
G1 X109.399 Y89.399 E0.06789
G1 X107.945 Y91.004 E0.06789
G1 X106.655 Y92.743 E0.06789
G1 X105.542 Y94.600 E0.06789
G1 X104.617 Y96.557 E0.06788
G1 X103.893 Y98.578 E0.06730
G1 X103.361 Y100.696 E0.06846
G1 X103.043 Y102.837 E0.06789
G1 X102.938 Y104.981 E0.06730
G1 X103.043 Y107.162 E0.06846
G1 X103.361 Y109.304 E0.06789
G1 X103.887 Y111.404 E0.06789
G1 X104.617 Y113.443 E0.06789
G1 X105.542 Y115.400 E0.06788
G1 X106.646 Y117.242 E0.06731
G1 X107.945 Y118.996 E0.06846
G1 X109.399 Y120.601 E0.06789
G1 X111.004 Y122.055 E0.06789
G1 X112.743 Y123.345 E0.06789
G1 X114.600 Y124.458 E0.06789
G1 X116.557 Y125.383 E0.06788
G1 X118.596 Y126.113 E0.06789
G1 X120.696 Y126.639 E0.06789
G1 X122.837 Y126.957 E0.06789
G1 X125.000 Y127.063 E0.06789
G1 X127.163 Y126.957 E0.06789
G1 X129.304 Y126.639 E0.06789
G1 X131.404 Y126.113 E0.06789
G1 X133.443 Y125.383 E0.06789
G1 X135.400 Y124.458 E0.06788
G1 X137.257 Y123.345 E0.06789
G1 X138.996 Y122.055 E0.06789
G1 X140.601 Y120.601 E0.06789
G1 X142.055 Y118.996 E0.06789
G1 X143.345 Y117.257 E0.06789
G1 X144.458 Y115.400 E0.06789
G1 X145.383 Y113.443 E0.06788
G1 X146.113 Y111.404 E0.06789
G1 X146.639 Y109.304 E0.06789
G1 X146.957 Y107.163 E0.06789
G1 X146.985 Y106.587 E0.01806
G1 X149.334 Y106.587 E0.07366
G1 X149.295 Y107.393 E0.02529
G1 X148.943 Y109.763 E0.07512
G1 X148.361 Y112.086 E0.07512
G1 X147.554 Y114.342 E0.07512
G1 X146.530 Y116.508 E0.07512
G1 X145.298 Y118.563 E0.07512
G1 X143.871 Y120.487 E0.07511
G1 X142.262 Y122.262 E0.07512
G1 X140.487 Y123.871 E0.07512
G1 X138.563 Y125.298 E0.07511
G1 X136.508 Y126.530 E0.07512
G1 X134.342 Y127.554 E0.07512
G1 X132.086 Y128.361 E0.07512
G1 X129.763 Y128.943 E0.07512
G1 X127.393 Y129.295 E0.07512
G1 X125.000 Y129.412 E0.07512
G1 X122.607 Y129.295 E0.07512
G1 X120.237 Y128.943 E0.07512
G1 X117.913 Y128.361 E0.07512
G1 X115.658 Y127.554 E0.07512
G1 X113.492 Y126.530 E0.07512
G1 X111.437 Y125.298 E0.07512
G1 X109.513 Y123.871 E0.07511
G1 X107.738 Y122.262 E0.07512
G1 X106.129 Y120.487 E0.07512
G1 X104.702 Y118.563 E0.07511
G1 X103.470 Y116.508 E0.07512
G1 X102.446 Y114.342 E0.07512
G1 X101.639 Y112.086 E0.07512
G1 X101.057 Y109.763 E0.07512
G1 X100.705 Y107.393 E0.07512
G1 X100.588 Y105.000 E0.07512
G1 X100.705 Y102.607 E0.07512
G1 X101.057 Y100.237 E0.07512
G1 X101.639 Y97.913 E0.07512
G1 X102.446 Y95.658 E0.07512
G1 X103.470 Y93.492 E0.07512
G1 X104.702 Y91.437 E0.07512
G1 X106.129 Y89.513 E0.07511
G1 X107.738 Y87.738 E0.07512
G1 X109.513 Y86.129 E0.07512
G1 X111.437 Y84.702 E0.07511
G1 X113.492 Y83.470 E0.07512
G1 X115.658 Y82.446 E0.07512
G1 X117.913 Y81.639 E0.07512
G1 X120.237 Y81.057 E0.07512
G1 X122.607 Y80.705 E0.07511
G1 X125.012 Y80.588 E0.07550
G1 X127.393 Y80.705 E0.07474
G1 X129.763 Y81.057 E0.07512
G1 X132.086 Y81.639 E0.07512
G1 X134.342 Y82.446 E0.07512
G1 X136.508 Y83.470 E0.07512
G1 X138.563 Y84.702 E0.07512
G1 X140.487 Y86.129 E0.07511
G1 X142.262 Y87.738 E0.07512
G1 X143.871 Y89.513 E0.07512
G1 X145.298 Y91.437 E0.07511
G1 X146.530 Y93.492 E0.07512
G1 X147.554 Y95.658 E0.07512
G1 X148.361 Y97.913 E0.07512
G1 X148.943 Y100.237 E0.07512
G1 X149.295 Y102.607 E0.07512
G1 X149.331 Y103.353 E0.02341
G1 X149.730 Y103.790 F10800.000
G1 F1200
G1 X146.626 Y103.790 E0.09734
G1 X146.581 Y102.874 E0.02874
G1 X146.269 Y100.769 E0.06672
G1 X145.751 Y98.705 E0.06673
G1 X145.035 Y96.701 E0.06673
G1 X144.125 Y94.778 E0.06672
G1 X143.031 Y92.952 E0.06673
G1 X141.763 Y91.243 E0.06672
G1 X140.334 Y89.666 E0.06672
G1 X138.757 Y88.237 E0.06672
G1 X137.048 Y86.969 E0.06672
G1 X135.222 Y85.875 E0.06673
G1 X133.299 Y84.965 E0.06672
G1 X131.295 Y84.249 E0.06673
G1 X129.231 Y83.731 E0.06673
G1 X127.125 Y83.419 E0.06673
G1 X124.982 Y83.316 E0.06730
G1 X122.874 Y83.419 E0.06615
G1 X120.769 Y83.731 E0.06672
G1 X118.705 Y84.249 E0.06673
G1 X116.701 Y84.965 E0.06673
G1 X114.778 Y85.875 E0.06673
G1 X112.937 Y86.980 E0.06730
G1 X111.243 Y88.237 E0.06615
G1 X109.666 Y89.666 E0.06672
G1 X108.237 Y91.243 E0.06672
G1 X106.969 Y92.952 E0.06672
G1 X105.875 Y94.778 E0.06673
G1 X104.965 Y96.701 E0.06672
G1 X104.255 Y98.688 E0.06615
G1 X103.731 Y100.769 E0.06730
G1 X103.419 Y102.874 E0.06673
G1 X103.316 Y104.982 E0.06615
G1 X103.419 Y107.125 E0.06730
G1 X103.731 Y109.231 E0.06673
G1 X104.249 Y111.295 E0.06673
G1 X104.965 Y113.299 E0.06673
G1 X105.875 Y115.222 E0.06672
G1 X106.960 Y117.032 E0.06615
G1 X108.237 Y118.757 E0.06730
G1 X109.666 Y120.334 E0.06673
G1 X111.243 Y121.763 E0.06672
G1 X112.952 Y123.031 E0.06672
G1 X114.778 Y124.125 E0.06673
G1 X116.701 Y125.035 E0.06672
G1 X118.705 Y125.751 E0.06673
G1 X120.769 Y126.269 E0.06673
G1 X122.874 Y126.581 E0.06672
G1 X125.000 Y126.685 E0.06672
G1 X127.126 Y126.581 E0.06672
G1 X129.231 Y126.269 E0.06672
G1 X131.295 Y125.751 E0.06673
G1 X133.299 Y125.035 E0.06673
G1 X135.222 Y124.125 E0.06672
G1 X137.048 Y123.031 E0.06673
G1 X138.757 Y121.763 E0.06672
G1 X140.334 Y120.334 E0.06672
G1 X141.763 Y118.757 E0.06672
G1 X143.031 Y117.048 E0.06672
G1 X144.125 Y115.222 E0.06673
G1 X145.035 Y113.299 E0.06672
G1 X145.751 Y111.295 E0.06673
G1 X146.269 Y109.231 E0.06673
G1 X146.581 Y107.126 E0.06672
G1 X146.626 Y106.210 E0.02874
G1 X149.730 Y106.210 E0.09734
G1 X149.670 Y107.430 E0.03829
G1 X149.313 Y109.836 E0.07628
G1 X148.722 Y112.196 E0.07628
G1 X147.903 Y114.487 E0.07628
G1 X146.863 Y116.686 E0.07628
G1 X145.612 Y118.772 E0.07628
G1 X144.163 Y120.726 E0.07627
G1 X142.529 Y122.529 E0.07628
G1 X140.726 Y124.163 E0.07628
G1 X138.772 Y125.612 E0.07627
G1 X136.686 Y126.863 E0.07628
G1 X134.487 Y127.903 E0.07628
G1 X132.196 Y128.722 E0.07628
G1 X129.836 Y129.313 E0.07628
G1 X127.430 Y129.670 E0.07628
G1 X125.000 Y129.790 E0.07628
G1 X122.570 Y129.670 E0.07628
G1 X120.164 Y129.313 E0.07628
G1 X117.804 Y128.722 E0.07628
G1 X115.513 Y127.903 E0.07628
G1 X113.314 Y126.863 E0.07628
G1 X111.228 Y125.612 E0.07628
G1 X109.274 Y124.163 E0.07627
G1 X107.471 Y122.529 E0.07628
G1 X105.837 Y120.726 E0.07628
G1 X104.388 Y118.772 E0.07627
G1 X103.137 Y116.686 E0.07628
G1 X102.097 Y114.487 E0.07628
G1 X101.278 Y112.196 E0.07628
G1 X100.687 Y109.836 E0.07628
G1 X100.330 Y107.430 E0.07628
G1 X100.210 Y105.000 E0.07628
G1 X100.330 Y102.570 E0.07628
G1 X100.687 Y100.164 E0.07628
G1 X101.278 Y97.804 E0.07628
G1 X102.097 Y95.513 E0.07628
G1 X103.137 Y93.314 E0.07628
G1 X104.388 Y91.228 E0.07628
G1 X105.837 Y89.274 E0.07627
G1 X107.471 Y87.471 E0.07628
G1 X109.274 Y85.837 E0.07628
G1 X111.228 Y84.388 E0.07627
G1 X113.314 Y83.137 E0.07628
G1 X115.513 Y82.097 E0.07628
G1 X117.804 Y81.278 E0.07628
G1 X120.164 Y80.687 E0.07628
G1 X122.570 Y80.330 E0.07628
G1 X125.012 Y80.211 E0.07666
G1 X127.430 Y80.330 E0.07589
G1 X129.836 Y80.687 E0.07628
G1 X132.196 Y81.278 E0.07628
G1 X134.487 Y82.097 E0.07628
G1 X136.686 Y83.137 E0.07628
G1 X138.772 Y84.388 E0.07628
G1 X140.726 Y85.837 E0.07627
G1 X142.529 Y87.471 E0.07628
G1 X144.163 Y89.274 E0.07628
G1 X145.612 Y91.228 E0.07627
G1 X146.863 Y93.314 E0.07628
G1 X147.903 Y95.513 E0.07628
G1 X148.722 Y97.804 E0.07628
G1 X149.313 Y100.164 E0.07628
G1 X149.670 Y102.570 E0.07628
G1 X149.727 Y103.730 E0.03641
G1 X149.377 Y103.603 F10800.000
G1 F8640
G1 X146.626 Y103.790 E-0.71629
G1 X146.617 Y103.601 E-0.04371
G1 E-0.04000 F2100.00000
G1 Z0.800 F10800.000
G1 X147.033 Y102.584
G1 Z0.200
G1 E0.80000 F2100.00000
G1 F1200
G1 X147.580 Y103.130 E0.02442
G1 X148.117 Y103.130 E0.01698
G1 X147.141 Y102.154 E0.04361
G1 X147.048 Y101.523 E0.02015
G1 X148.654 Y103.130 E0.07180
G1 X149.037 Y103.130 E0.01209
G1 X149.029 Y102.968 E0.00514
G1 X146.954 Y100.892 E0.09273
G1 X146.917 Y100.641 E0.00804
G1 X146.809 Y100.210 E0.01403
G1 X148.974 Y102.375 E0.09677
G1 X148.881 Y101.744 E0.02015
G1 X146.629 Y99.493 E0.10061
G1 X146.449 Y98.776 E0.02335
G1 X148.787 Y101.113 E0.10445
G1 X148.694 Y100.483 E0.02015
G1 X146.194 Y97.983 E0.11169
G1 X145.894 Y97.146 E0.02808
G1 X148.540 Y99.791 E0.11820
G1 X148.360 Y99.075 E0.02335
G1 X145.565 Y96.279 E0.12491
G1 X145.082 Y95.259 E0.03563
G1 X148.414 Y98.591 E0.14886
G1 X148.222 Y97.862 F10800.000
G1 F1200
G1 X144.035 Y93.675 E0.18710
G1 F8640
G1 X146.362 Y96.002 E-0.76000
G1 E-0.04000 F2100.00000
G1 Z0.800 F10800.000
G1 X143.040 Y92.142
G1 Z0.200
G1 E0.80000 F2100.00000
G1 F1200
G1 X147.923 Y97.025 E0.21817
G1 F8640
G1 X145.596 Y94.698 E-0.76000
G1 E-0.04000 F2100.00000
G1 Z0.800 F10800.000
G1 X146.766 Y94.256
G1 Z0.200
G1 E0.80000 F2100.00000
G1 F1200
G1 X136.100 Y83.590 E0.47654
G1 X135.081 Y83.108 E0.03564
G1 X146.892 Y94.919 E0.52773
G1 X147.292 Y95.766 E0.02960
G1 X147.343 Y95.908 E0.00476
G1 X134.092 Y82.657 E0.59207
G1 X133.255 Y82.358 E0.02808
G1 X137.858 Y86.960 E0.20563
G1 F8640
G1 X135.530 Y84.632 E-0.76000
G1 E-0.04000 F2100.00000
G1 Z0.800 F10800.000
G1 X136.325 Y85.965
G1 Z0.200
G1 E0.80000 F2100.00000
G1 F1200
G1 X132.419 Y82.058 E0.17456
G1 X132.004 Y81.910 E0.01390
G1 X131.642 Y81.819 E0.01179
G1 X134.741 Y84.918 E0.13843
G1 X133.721 Y84.435 E0.03563
G1 X130.925 Y81.640 E0.12491
G1 X130.209 Y81.460 E0.02335
G1 X132.854 Y84.106 E0.11820
G1 X132.017 Y83.806 E0.02808
G1 X129.517 Y81.306 E0.11169
G1 X128.887 Y81.213 E0.02015
G1 X131.224 Y83.551 E0.10445
G1 X130.507 Y83.371 E0.02335
G1 X128.256 Y81.119 E0.10061
G1 X127.625 Y81.026 E0.02015
G1 X129.790 Y83.191 E0.09677
G1 X129.359 Y83.083 E0.01403
G1 X129.108 Y83.046 E0.00804
G1 X127.032 Y80.971 E0.09273
G1 X126.467 Y80.943 E0.01788
G1 X128.477 Y82.952 E0.08979
G1 X127.846 Y82.859 E0.02015
G1 X125.902 Y80.915 E0.08685
G1 X125.337 Y80.887 E0.01788
G1 X127.215 Y82.765 E0.08390
G1 X126.648 Y82.735 E0.01795
G1 X124.794 Y80.882 E0.08281
G1 X124.282 Y80.907 E0.01621
G1 X126.083 Y82.708 E0.08048
G1 X125.518 Y82.681 E0.01786
G1 X123.769 Y80.932 E0.07815
G1 X123.257 Y80.957 E0.01621
G1 X124.956 Y82.656 E0.07593
G1 X124.444 Y82.681 E0.01620
G1 X122.745 Y80.982 E0.07594
G1 X122.635 Y80.987 E0.00348
G1 X122.267 Y81.042 E0.01174
G1 X123.932 Y82.707 E0.07439
G1 X123.420 Y82.732 E0.01620
G1 X121.799 Y81.111 E0.07241
G1 X121.331 Y81.181 E0.01495
G1 X122.908 Y82.757 E0.07043
G1 X122.431 Y82.818 E0.01517
G1 X120.863 Y81.250 E0.07006
G1 X120.395 Y81.319 E0.01495
G1 X121.963 Y82.887 E0.07006
G1 X121.495 Y82.957 E0.01495
G1 X119.957 Y81.419 E0.06872
G1 X119.528 Y81.526 E0.01400
G1 X121.027 Y83.026 E0.06701
G1 X120.566 Y83.102 E0.01477
G1 X119.098 Y81.634 E0.06560
G1 X118.668 Y81.741 E0.01400
G1 X120.136 Y83.210 E0.06560
G1 X119.707 Y83.317 E0.01400
G1 X118.238 Y81.849 E0.06560
G1 X117.996 Y81.910 E0.00790
G1 X117.823 Y81.972 E0.00578
G1 X119.277 Y83.425 E0.06494
G1 X118.847 Y83.533 E0.01400
G1 X117.428 Y82.113 E0.06343
G1 X117.032 Y82.255 E0.01328
G1 X118.425 Y83.648 E0.06225
G1 X118.029 Y83.789 E0.01328
G1 X116.636 Y82.396 E0.06225
G1 X116.240 Y82.538 E0.01328
G1 X117.634 Y83.931 E0.06225
G1 X117.238 Y84.073 E0.01328
G1 X115.845 Y82.680 E0.06225
G1 X115.766 Y82.708 E0.00263
G1 X115.474 Y82.846 E0.01022
G1 X116.842 Y84.214 E0.06114
G1 X116.446 Y84.356 E0.01328
G1 X115.109 Y83.019 E0.05976
G1 X114.744 Y83.191 E0.01275
G1 X116.082 Y84.529 E0.05976
G1 X115.717 Y84.701 E0.01275
G1 X114.379 Y83.364 E0.05976
G1 X114.015 Y83.536 E0.01275
G1 X115.352 Y84.874 E0.05976
G1 X114.987 Y85.046 E0.01275
G1 X113.650 Y83.709 E0.05976
G1 X113.312 Y83.908 E0.01240
G1 X114.622 Y85.219 E0.05856
G1 X114.274 Y85.408 E0.01252
G1 X112.976 Y84.110 E0.05801
G1 X112.640 Y84.311 E0.01238
G1 X113.938 Y85.610 E0.05802
G1 X113.603 Y85.811 E0.01237
G1 X112.304 Y84.512 E0.05803
G1 X111.968 Y84.714 E0.01238
G1 X113.267 Y86.013 E0.05805
G1 X112.931 Y86.214 E0.01237
G1 X111.632 Y84.915 E0.05806
G1 X111.320 Y85.141 E0.01216
G1 X112.596 Y86.416 E0.05698
G1 X112.285 Y86.643 E0.01215
G1 X111.012 Y85.370 E0.05689
G1 X110.703 Y85.598 E0.01214
G1 X111.976 Y86.872 E0.05689
G1 X111.668 Y87.100 E0.01214
G1 X110.395 Y85.827 E0.05689
G1 X110.086 Y86.056 E0.01214
G1 X111.359 Y87.329 E0.05689
